src/svg/graph.svg

<svg height="16" width="16" xmlns="http://www.w3.org/2000/svg" viewBox="0 0 16 16">
  <path d="M16 14v1H0V0h1v14h15z m-11-1H3V8h2v5z m4 0H7V3h2v10z m4 0H11V6h2v7z" />
</svg>

<?xml version="1.0" encoding="UTF-8" standalone="no"?>
<svg width="16px" height="16px" viewBox="0 0 16 16" version="1.1" xmlns="http://www.w3.org/2000/svg" xmlns:xlink="http://www.w3.org/1999/xlink">
    <!-- Generator: Sketch 3.7.1 (28215) - http://www.bohemiancoding.com/sketch -->
    <title>graph</title>
    <desc>Created with Sketch.</desc>
    <defs></defs>
    <g id="Octicons" stroke="none" stroke-width="1" fill="none" fill-rule="evenodd">
        <g id="graph" fill="#000000">
            <path d="M16,14 L16,15 L0,15 L0,0 L1,0 L1,14 L16,14 L16,14 Z M5,13 L3,13 L3,8 L5,8 L5,13 L5,13 Z M9,13 L7,13 L7,3 L9,3 L9,13 L9,13 Z M13,13 L11,13 L11,6 L13,6 L13,13 L13,13 Z" id="Shape"></path>
        </g>
    </g>
</svg>
